X:99
T:Frenchie's reel
R:Reel
C:Ward Allen and Mel Lavigne
B:The Portland Collection
S:jc_music.abc
S:My arrangement from various sources
Z:Transcription, arrangement, chords:Mike Long
M:C|
L:1/8
K:Bb
FE|\
"Bb"DFBc d2FE|DFBc d2cB|"F"AFcF eFcF|AFcF e2FE|\
"Bb"DFBc d2FE|DFBc dBcB|
"F"AFcF ecAc|[1 "Eb"BABc "Bb"B2:|[2 "Eb"BABc BGFE\
|:"Bb"D2BD FBDF|BDFB- BDFB|"Eb"E2BE GBEG|
BEGB- BEGB|\
"F"F2cF FdFF|eFFd FFcF|"Bb"BABd "F"cBAc|[1 "Bb"BA"Eb"Bc "Bb"BGFE:|[2 "Bb"BA"Eb"Bc "Bb"B2|]
